packages/smooth_app/assets/preferences/contribute.svg

<svg width="375" height="241" viewBox="0 0 375 241" fill="none" xmlns="http://www.w3.org/2000/svg">
    <path d="M186.145 192.668C188.33 193.201 190.522 192.993 192.46 192.216L190.055 202.088C188.743 207.462 192.044 212.882 197.422 214.192L233.587 222.995C238.965 224.305 244.388 221.006 245.699 215.632L254.507 179.492C255.819 174.117 252.518 168.698 247.14 167.387L237.325 164.999C238.069 166.911 238.259 169.062 237.735 171.207C236.378 176.771 230.765 180.184 225.194 178.832C219.627 177.476 216.211 171.867 217.565 166.3C218.086 164.155 219.244 162.333 220.784 160.977L210.969 158.588C205.591 157.278 200.168 160.576 198.857 165.951L196.451 175.822C195.089 174.241 193.235 173.051 191.052 172.521C185.482 171.165 179.869 174.578 178.512 180.145C177.156 185.712 180.571 191.321 186.142 192.677L186.145 192.668Z" fill="#F5C100"/>
    <path d="M134.302 140.36C134.006 142.589 134.446 144.743 135.429 146.586L125.352 145.255C119.862 144.529 114.825 148.388 114.101 153.874L109.224 190.749C108.498 196.235 112.359 201.269 117.849 201.992L154.749 206.866C160.238 207.592 165.276 203.733 165.999 198.247L167.322 188.24C165.499 189.186 163.379 189.601 161.191 189.312C155.509 188.562 151.511 183.351 152.262 177.669C153.013 171.991 158.228 167.996 163.913 168.746C166.105 169.035 168.04 169.99 169.556 171.376L170.879 161.369C171.606 155.883 167.744 150.849 162.255 150.126L152.178 148.795C153.606 147.27 154.589 145.303 154.885 143.074C155.635 137.395 151.638 132.184 145.956 131.431C140.273 130.681 135.058 134.675 134.305 140.354L134.302 140.36Z" fill="#1E8F4E"/>
    <path d="M283.54 63.2557C283.54 61.0084 282.823 58.9298 281.608 57.2308H291.773C297.31 57.2308 301.796 52.7452 301.796 47.2143V10.0164C301.796 4.48556 297.307 0 291.773 0H254.55C249.012 0 244.523 4.48556 244.523 10.0164V20.1112C246.206 18.9363 248.252 18.2435 250.462 18.2435C256.193 18.2435 260.841 22.8857 260.841 28.6154C260.841 34.3451 256.196 38.9873 250.462 38.9873C248.252 38.9873 246.206 38.2944 244.523 37.1196V47.2143C244.523 52.7482 249.012 57.2308 254.547 57.2308H264.712C263.497 58.9298 262.779 61.0084 262.779 63.2557C262.779 68.9854 267.425 73.6276 273.158 73.6276C278.892 73.6276 283.537 68.9854 283.537 63.2557H283.54Z" fill="#EF7E1A"/>
    <path d="M193.178 75.4742C190.974 75.4742 188.933 76.1611 187.254 77.3329V67.2472C187.254 61.7525 182.829 57.294 177.346 57.2338C177.337 57.2338 177.328 57.2338 177.322 57.2338H167.157C168.372 58.9328 169.089 61.0114 169.089 63.2587C169.089 68.9884 164.444 73.6306 158.71 73.6306C152.977 73.6306 148.331 68.9884 148.331 63.2587C148.331 61.0114 149.049 58.9328 150.264 57.2338H140.099C140.059 57.2338 140.023 57.2338 139.984 57.2338C134.459 57.2488 129.985 61.7253 129.985 67.2502V77.4082C128.285 76.1942 126.205 75.4772 123.956 75.4772C118.222 75.4772 113.577 80.1194 113.577 85.8491C113.577 91.5788 118.222 96.2211 123.956 96.2211C126.205 96.2211 128.285 95.5041 129.985 94.2901V104.448C129.985 109.982 134.474 114.465 140.008 114.465H150.11C148.934 112.784 148.241 110.738 148.241 108.53C148.241 102.803 152.886 98.1581 158.62 98.1581C164.353 98.1581 168.999 102.8 168.999 108.53C168.999 110.738 168.305 112.784 167.13 114.465H177.231C182.769 114.465 187.254 109.979 187.254 104.448V94.3624C188.933 95.5312 190.977 96.2211 193.178 96.2211C198.908 96.2211 203.557 91.5788 203.557 85.8491C203.557 80.1194 198.911 75.4772 193.178 75.4772V75.4742Z" fill="#EF7E1A"/>
    <path d="M136.017 18.2435C133.813 18.2435 131.772 18.9303 130.093 20.1022V10.0164C130.09 4.48556 125.605 0 120.067 0H82.8442C77.3096 0 72.821 4.48556 72.821 10.0164V20.1745C71.1208 18.9604 69.0408 18.2435 66.792 18.2435C61.0584 18.2435 56.4131 22.8857 56.4131 28.6154C56.4131 34.3451 61.0584 38.9873 66.792 38.9873C69.0408 38.9873 71.1208 38.2703 72.821 37.0563V47.2143C72.821 52.7482 77.3096 57.2308 82.8442 57.2308H92.9457C91.7701 55.5498 91.0768 53.5043 91.0768 51.2962C91.0768 45.5695 95.7221 40.9243 101.456 40.9243C107.189 40.9243 111.835 45.5665 111.835 51.2962C111.835 53.5043 111.141 55.5498 109.966 57.2308H120.067C125.605 57.2308 130.09 52.7452 130.09 47.2143V37.1286C131.769 38.2974 133.813 38.9873 136.014 38.9873C141.744 38.9873 146.393 34.3451 146.393 28.6154C146.393 22.8857 141.747 18.2435 136.014 18.2435H136.017Z" fill="#F5C100"/>
    <path d="M250.501 18.2435C248.298 18.2435 246.257 18.9303 244.578 20.1022V10.0164C244.578 4.48556 240.089 0 234.552 0H197.329C191.794 0 187.305 4.48556 187.305 10.0164V20.1745C185.605 18.9604 183.525 18.2435 181.276 18.2435C175.543 18.2435 170.897 22.8857 170.897 28.6154C170.897 34.3451 175.543 38.9873 181.276 38.9873C183.525 38.9873 185.605 38.2703 187.305 37.0563V47.2143C187.305 52.7482 191.794 57.2308 197.329 57.2308H207.43C206.254 55.5498 205.561 53.5043 205.561 51.2962C205.561 45.5695 210.206 40.9243 215.94 40.9243C221.674 40.9243 226.319 45.5665 226.319 51.2962C226.319 53.5043 225.626 55.5498 224.45 57.2308H234.552C240.089 57.2308 244.575 52.7452 244.575 47.2143V37.1286C246.254 38.2974 248.298 38.9873 250.498 38.9873C256.229 38.9873 260.877 34.3451 260.877 28.6154C260.877 22.8857 256.232 18.2435 250.498 18.2435H250.501Z" fill="#D93726"/>
    <path d="M238.549 96.218C232.815 96.218 228.17 91.5758 228.17 85.8461C228.17 80.1164 232.815 75.4742 238.549 75.4742C240.777 75.4742 242.836 76.1791 244.527 77.3721V67.2472C244.527 61.7133 240.038 57.2307 234.503 57.2307H224.366C225.593 55.5287 226.316 53.4411 226.316 51.1817C226.316 45.455 221.671 40.8098 215.937 40.8098C210.204 40.8098 205.558 45.452 205.558 51.1817C205.558 53.4411 206.282 55.5287 207.509 57.2307H197.281C191.743 57.2307 187.257 61.7163 187.257 67.2472V77.3419C188.939 76.1671 190.986 75.4742 193.196 75.4742C198.926 75.4742 203.575 80.1164 203.575 85.8461C203.575 91.5758 198.929 96.218 193.196 96.218C190.986 96.218 188.939 95.5252 187.257 94.3503V104.445C187.257 109.979 191.746 114.462 197.281 114.462H207.445C206.231 116.161 205.513 118.239 205.513 120.486C205.513 126.213 210.158 130.858 215.892 130.858C221.626 130.858 226.271 126.216 226.271 120.486C226.271 118.239 225.553 116.161 224.339 114.462H234.503C240.041 114.462 244.527 109.976 244.527 104.445V94.3202C242.836 95.5131 240.777 96.218 238.549 96.218Z" fill="#1E8F4E"/>
    <path d="M307.774 75.4742C305.57 75.4742 303.529 76.1611 301.85 77.3329V67.2472C301.85 61.7525 297.425 57.294 291.941 57.2338C291.932 57.2338 291.923 57.2338 291.917 57.2338H281.752C282.967 58.9328 283.685 61.0114 283.685 63.2587C283.685 68.9884 279.039 73.6306 273.306 73.6306C267.572 73.6306 262.927 68.9884 262.927 63.2587C262.927 61.0114 263.644 58.9328 264.859 57.2338H254.694C254.655 57.2338 254.619 57.2338 254.58 57.2338C249.054 57.2488 244.581 61.7253 244.581 67.2502V77.4082C242.881 76.1942 240.801 75.4772 238.552 75.4772C232.818 75.4772 228.173 80.1194 228.173 85.8491C228.173 91.5788 232.818 96.2211 238.552 96.2211C240.801 96.2211 242.881 95.5041 244.581 94.2901V104.448C244.581 109.982 249.069 114.465 254.604 114.465H264.706C263.53 112.784 262.837 110.738 262.837 108.53C262.837 102.803 267.482 98.1581 273.215 98.1581C278.949 98.1581 283.594 102.8 283.594 108.53C283.594 110.738 282.901 112.784 281.725 114.465H291.827C297.365 114.465 301.85 109.979 301.85 104.448V94.3624C303.529 95.5312 305.573 96.2211 307.774 96.2211C313.504 96.2211 318.152 91.5788 318.152 85.8491C318.152 80.1194 313.507 75.4772 307.774 75.4772V75.4742Z" fill="#F5C100"/>
    <path d="M124.291 96.218C118.557 96.218 113.912 91.5758 113.912 85.8461C113.912 80.1164 118.557 75.4742 124.291 75.4742C126.518 75.4742 128.577 76.1791 130.268 77.3721V67.2472C130.268 61.7133 125.78 57.2307 120.245 57.2307H110.107C111.334 55.5287 112.058 53.4411 112.058 51.1817C112.058 45.455 107.412 40.8098 101.679 40.8098C95.9453 40.8098 91.3 45.452 91.3 51.1817C91.3 53.4411 92.0235 55.5287 93.2504 57.2307H83.0222C77.4846 57.2307 72.999 61.7163 72.999 67.2472V77.3419C74.6811 76.1671 76.7279 75.4742 78.9376 75.4742C84.6681 75.4742 89.3165 80.1164 89.3165 85.8461C89.3165 91.5758 84.6711 96.218 78.9376 96.218C76.7279 96.218 74.6811 95.5252 72.999 94.3503V104.445C72.999 109.979 77.4876 114.462 83.0222 114.462H93.1871C91.9722 116.161 91.2548 118.239 91.2548 120.486C91.2548 126.213 95.9001 130.858 101.634 130.858C107.367 130.858 112.013 126.216 112.013 120.486C112.013 118.239 111.295 116.161 110.08 114.462H120.245C125.783 114.462 130.268 109.976 130.268 104.445V94.3202C128.577 95.5131 126.518 96.218 124.291 96.218Z" fill="#D93726"/>
    <path d="M181.322 38.9873C175.588 38.9873 170.943 34.3451 170.943 28.6154C170.943 22.8857 175.588 18.2435 181.322 18.2435C183.567 18.2435 185.644 18.9604 187.342 20.1714V10.0164C187.345 4.48556 182.856 0 177.318 0H140.095C134.561 0 130.072 4.48556 130.072 10.0164V20.1112C131.754 18.9363 133.801 18.2435 136.011 18.2435C141.741 18.2435 146.39 22.8857 146.39 28.6154C146.39 34.3451 141.744 38.9873 136.011 38.9873C133.801 38.9873 131.754 38.2944 130.072 37.1196V47.2143C130.072 52.7482 134.561 57.2308 140.095 57.2308H150.26C149.045 58.9298 148.328 61.0084 148.328 63.2557C148.328 68.9854 152.973 73.6276 158.707 73.6276C164.441 73.6276 169.086 68.9854 169.086 63.2557C169.086 61.0084 168.368 58.9298 167.154 57.2308H177.318C182.856 57.2308 187.342 52.7452 187.342 47.2143V37.0593C185.644 38.2703 183.567 38.9873 181.322 38.9873Z" fill="#1E8F4E"/>
    <path d="M160.7 204.974C160.603 202.416 158.342 200.428 155.653 200.531L125.15 201.696L125.068 199.533L155.43 198.374C158.119 198.271 160.217 196.114 160.121 193.557C160.024 190.999 157.767 189.011 155.078 189.116L124.716 190.276L124.634 188.113L155.21 186.944C157.899 186.842 159.997 184.685 159.901 182.127C159.804 179.573 157.546 177.582 154.855 177.687L124.279 178.856L124.197 176.693L154.951 175.518C157.64 175.416 159.738 173.259 159.642 170.701C159.545 168.144 157.287 166.155 154.598 166.258L123.817 167.433V167.403L108.175 167.999L116.293 159.239C118.207 157.175 118.084 153.952 116.019 152.039C113.954 150.126 110.728 150.25 108.814 152.313L93.7688 168.544C93.8171 168.544 93.8653 168.544 93.9135 168.541L93.7658 168.547C65.8154 169.575 38.5915 159.489 18.0689 140.489L0 123.77V181.13C29.8766 202.314 66.0837 213.228 103.093 211.812L125.478 210.957H125.502L156.009 209.791C158.698 209.688 160.799 207.529 160.7 204.974Z" fill="#FFC88C"/>
    <path d="M375 144.098L341.672 172.59C320.413 190.764 292.816 199.768 264.926 197.636L264.778 197.627C264.826 197.63 264.874 197.633 264.923 197.636L250.531 180.823C248.702 178.684 245.485 178.434 243.345 180.263C241.204 182.091 240.954 185.306 242.784 187.444L250.549 196.518L234.943 195.304V195.334L204.232 192.945C201.549 192.737 199.216 194.635 199.017 197.184C198.818 199.732 200.831 201.974 203.511 202.181L234.196 204.57L234.027 206.73L203.52 204.356C200.837 204.149 198.501 206.046 198.305 208.595C198.106 211.146 200.12 213.385 202.803 213.593L233.31 215.966L233.141 218.123L202.848 215.765C200.165 215.557 197.832 217.452 197.633 220.003C197.434 222.555 199.448 224.793 202.128 225.001L232.42 227.357L232.251 229.513L201.817 227.146C199.134 226.938 196.798 228.833 196.599 231.387C196.4 233.936 198.414 236.174 201.097 236.385L231.534 238.753H231.558L253.892 240.494C297.82 243.913 341.31 229.854 374.909 201.404L374.997 200.41V144.095L375 144.098Z" fill="#A0643C"/>
    <path d="M135.429 146.586L125.352 145.255C119.862 144.529 114.825 148.388 114.102 153.874L112.501 165.966L135.429 146.586Z" fill="#1E8F4E"/>
    <path d="M250.447 196.147L254.508 179.489C255.819 174.114 252.518 168.695 247.14 167.384L239.363 165.493L236.768 187.673L250.45 196.147H250.447Z" fill="#F5C100"/>
</svg>

<svg width="375" height="241" fill="none" xmlns="http://www.w3.org/2000/svg"><path d="M186.145 192.668c2.185.533 4.377.325 6.315-.452l-2.405 9.872c-1.312 5.374 1.989 10.794 7.367 12.104l36.165 8.803c5.378 1.31 10.801-1.989 12.112-7.363l8.808-36.14c1.312-5.375-1.989-10.794-7.367-12.105l-9.815-2.388c.744 1.912.934 4.063.41 6.208-1.357 5.564-6.97 8.977-12.541 7.625-5.567-1.356-8.983-6.965-7.629-12.532a10.312 10.312 0 0 1 3.219-5.323l-9.815-2.389c-5.378-1.31-10.801 1.988-12.112 7.363l-2.406 9.871a10.32 10.32 0 0 0-5.399-3.301c-5.57-1.356-11.183 2.057-12.54 7.624-1.356 5.567 2.059 11.176 7.63 12.532l.003-.009Z" fill="#F5C100"/><path d="M134.302 140.36a10.3 10.3 0 0 0 1.127 6.226l-10.077-1.331c-5.49-.726-10.527 3.133-11.251 8.619l-4.877 36.875c-.726 5.486 3.135 10.52 8.625 11.243l36.9 4.874c5.489.726 10.527-3.133 11.25-8.619l1.323-10.007a10.33 10.33 0 0 1-6.131 1.072c-5.682-.75-9.68-5.961-8.929-11.643.751-5.678 5.966-9.673 11.651-8.923a10.332 10.332 0 0 1 5.643 2.63l1.323-10.007c.727-5.486-3.135-10.52-8.624-11.243l-10.077-1.331a10.328 10.328 0 0 0 2.707-5.721c.75-5.679-3.247-10.89-8.929-11.643-5.683-.75-10.898 3.244-11.651 8.923l-.003.006Z" fill="#1E8F4E"/><path d="M283.54 63.256a10.32 10.32 0 0 0-1.932-6.025h10.165c5.537 0 10.023-4.486 10.023-10.017V10.016c0-5.53-4.489-10.016-10.023-10.016H254.55c-5.538 0-10.027 4.486-10.027 10.016v10.095a10.34 10.34 0 0 1 5.939-1.867c5.731 0 10.379 4.642 10.379 10.371 0 5.73-4.645 10.372-10.379 10.372a10.34 10.34 0 0 1-5.939-1.867v10.094c0 5.534 4.489 10.017 10.024 10.017h10.165a10.322 10.322 0 0 0-1.933 6.025c0 5.73 4.646 10.372 10.379 10.372 5.734 0 10.379-4.643 10.379-10.372h.003ZM193.178 75.474c-2.204 0-4.245.687-5.924 1.859V67.247c0-5.495-4.425-9.953-9.908-10.013H167.157a10.32 10.32 0 0 1 1.932 6.025c0 5.73-4.645 10.372-10.379 10.372-5.733 0-10.379-4.643-10.379-10.372 0-2.248.718-4.326 1.933-6.025h-10.28c-5.525.015-9.999 4.491-9.999 10.016v10.158a10.338 10.338 0 0 0-6.029-1.93c-5.734 0-10.379 4.641-10.379 10.371s4.645 10.372 10.379 10.372c2.249 0 4.329-.717 6.029-1.93v10.157c0 5.534 4.489 10.017 10.023 10.017h10.102a10.32 10.32 0 0 1-1.869-5.935c0-5.727 4.645-10.372 10.379-10.372 5.733 0 10.379 4.642 10.379 10.372 0 2.208-.694 4.254-1.869 5.935h10.101c5.538 0 10.023-4.486 10.023-10.017V94.362a10.341 10.341 0 0 0 5.924 1.86c5.73 0 10.379-4.643 10.379-10.373 0-5.73-4.646-10.372-10.379-10.372v-.003Z" fill="#EF7E1A"/><path d="M136.017 18.244c-2.204 0-4.245.686-5.924 1.858V10.016C130.09 4.486 125.605 0 120.067 0H82.844C77.31 0 72.821 4.486 72.821 10.016v10.158a10.338 10.338 0 0 0-6.029-1.93c-5.734 0-10.379 4.642-10.379 10.371 0 5.73 4.645 10.372 10.379 10.372 2.249 0 4.329-.717 6.029-1.93v10.157c0 5.534 4.489 10.017 10.023 10.017h10.102a10.321 10.321 0 0 1-1.87-5.935c0-5.727 4.646-10.372 10.38-10.372 5.733 0 10.379 4.642 10.379 10.372 0 2.208-.694 4.254-1.869 5.935h10.101c5.538 0 10.023-4.486 10.023-10.017V37.13a10.341 10.341 0 0 0 5.924 1.858c5.73 0 10.379-4.642 10.379-10.372 0-5.73-4.646-10.371-10.379-10.371h.003Z" fill="#F5C100"/><path d="M250.501 18.244a10.31 10.31 0 0 0-5.923 1.858V10.016c0-5.53-4.489-10.016-10.026-10.016h-37.223c-5.535 0-10.024 4.486-10.024 10.016v10.158a10.337 10.337 0 0 0-6.029-1.93c-5.733 0-10.379 4.642-10.379 10.371 0 5.73 4.646 10.372 10.379 10.372 2.249 0 4.329-.717 6.029-1.93v10.157c0 5.534 4.489 10.017 10.024 10.017h10.101a10.318 10.318 0 0 1-1.869-5.935c0-5.727 4.645-10.372 10.379-10.372s10.379 4.642 10.379 10.372c0 2.208-.693 4.254-1.869 5.935h10.102c5.537 0 10.023-4.486 10.023-10.017V37.13a10.34 10.34 0 0 0 5.923 1.858c5.731 0 10.379-4.642 10.379-10.372 0-5.73-4.645-10.371-10.379-10.371h.003Z" fill="#D93726"/><path d="M238.549 96.218c-5.734 0-10.379-4.642-10.379-10.372 0-5.73 4.645-10.372 10.379-10.372 2.228 0 4.287.705 5.978 1.898V67.247c0-5.534-4.489-10.016-10.024-10.016h-10.137a10.305 10.305 0 0 0 1.95-6.05c0-5.726-4.645-10.371-10.379-10.371-5.733 0-10.379 4.642-10.379 10.372 0 2.26.724 4.347 1.951 6.049h-10.228c-5.538 0-10.024 4.485-10.024 10.016v10.095a10.338 10.338 0 0 1 5.939-1.868c5.73 0 10.379 4.642 10.379 10.372 0 5.73-4.646 10.372-10.379 10.372-2.21 0-4.257-.693-5.939-1.868v10.095c0 5.534 4.489 10.017 10.024 10.017h10.164a10.326 10.326 0 0 0-1.932 6.024c0 5.727 4.645 10.372 10.379 10.372s10.379-4.642 10.379-10.372c0-2.247-.718-4.325-1.932-6.024h10.164c5.538 0 10.024-4.486 10.024-10.017V94.32a10.331 10.331 0 0 1-5.978 1.898Z" fill="#1E8F4E"/><path d="M307.774 75.474c-2.204 0-4.245.687-5.924 1.859V67.247c0-5.495-4.425-9.953-9.909-10.013H281.752a10.322 10.322 0 0 1 1.933 6.025c0 5.73-4.646 10.372-10.379 10.372-5.734 0-10.379-4.643-10.379-10.372 0-2.248.717-4.326 1.932-6.025H254.58c-5.526.015-9.999 4.491-9.999 10.016v10.158a10.338 10.338 0 0 0-6.029-1.93c-5.734 0-10.379 4.641-10.379 10.371s4.645 10.372 10.379 10.372c2.249 0 4.329-.717 6.029-1.93v10.157c0 5.534 4.488 10.017 10.023 10.017h10.102a10.32 10.32 0 0 1-1.869-5.935c0-5.727 4.645-10.372 10.378-10.372 5.734 0 10.379 4.642 10.379 10.372a10.32 10.32 0 0 1-1.869 5.935h10.102c5.538 0 10.023-4.486 10.023-10.017V94.362a10.341 10.341 0 0 0 5.924 1.86c5.73 0 10.378-4.643 10.378-10.373 0-5.73-4.645-10.372-10.378-10.372v-.003Z" fill="#F5C100"/><path d="M124.291 96.218c-5.734 0-10.379-4.642-10.379-10.372 0-5.73 4.645-10.372 10.379-10.372 2.227 0 4.286.705 5.977 1.898V67.247c0-5.534-4.488-10.016-10.023-10.016h-10.138a10.305 10.305 0 0 0 1.951-6.05c0-5.726-4.646-10.371-10.379-10.371-5.734 0-10.379 4.642-10.379 10.372 0 2.26.724 4.347 1.95 6.049H83.022C77.485 57.23 73 61.716 73 67.247v10.095a10.337 10.337 0 0 1 5.939-1.868c5.73 0 10.379 4.642 10.379 10.372 0 5.73-4.646 10.372-10.38 10.372-2.21 0-4.256-.693-5.938-1.868v10.095c0 5.534 4.489 10.017 10.023 10.017h10.165a10.32 10.32 0 0 0-1.932 6.024c0 5.727 4.645 10.372 10.379 10.372 5.733 0 10.379-4.642 10.379-10.372a10.32 10.32 0 0 0-1.933-6.024h10.165c5.538 0 10.023-4.486 10.023-10.017V94.32a10.33 10.33 0 0 1-5.977 1.898Z" fill="#D93726"/><path d="M181.322 38.987c-5.734 0-10.379-4.642-10.379-10.372 0-5.73 4.645-10.371 10.379-10.371 2.245 0 4.322.716 6.02 1.927V10.016C187.345 4.486 182.856 0 177.318 0h-37.223c-5.534 0-10.023 4.486-10.023 10.016v10.095a10.337 10.337 0 0 1 5.939-1.867c5.73 0 10.379 4.642 10.379 10.371 0 5.73-4.646 10.372-10.379 10.372-2.21 0-4.257-.693-5.939-1.867v10.094c0 5.534 4.489 10.017 10.023 10.017h10.165a10.32 10.32 0 0 0-1.932 6.025c0 5.73 4.645 10.372 10.379 10.372s10.379-4.643 10.379-10.372c0-2.248-.718-4.326-1.932-6.025h10.164c5.538 0 10.024-4.486 10.024-10.017V37.06a10.334 10.334 0 0 1-6.02 1.928Z" fill="#1E8F4E"/><path d="M160.7 204.974c-.097-2.558-2.358-4.546-5.047-4.443l-30.503 1.165-.082-2.163 30.362-1.159c2.689-.103 4.787-2.26 4.691-4.817-.097-2.558-2.354-4.546-5.043-4.441l-30.362 1.16-.082-2.163 30.576-1.169c2.689-.102 4.787-2.259 4.691-4.817-.097-2.554-2.355-4.545-5.046-4.44l-30.576 1.169-.082-2.163 30.754-1.175c2.689-.102 4.787-2.259 4.691-4.817-.097-2.557-2.355-4.546-5.044-4.443l-30.781 1.175v-.03l-15.642.596 8.118-8.76a5.093 5.093 0 0 0-.274-7.2 5.101 5.101 0 0 0-7.205.274l-15.045 16.231c.048 0 .096 0 .144-.003l-.147.006a105.706 105.706 0 0 1-75.697-28.058L0 123.77v57.36a167.194 167.194 0 0 0 103.093 30.682l22.385-.855h.024l30.507-1.166c2.689-.103 4.79-2.262 4.691-4.817Z" fill="#FFC88C"/><path d="m375 144.098-33.328 28.492a105.704 105.704 0 0 1-76.746 25.046l-.148-.009.145.009-14.392-16.813a5.097 5.097 0 0 0-7.186-.56 5.089 5.089 0 0 0-.561 7.181l7.765 9.074-15.606-1.214v.03l-30.711-2.389c-2.683-.208-5.016 1.69-5.215 4.239-.199 2.548 1.814 4.79 4.494 4.997l30.685 2.389-.169 2.16-30.507-2.374c-2.683-.207-5.019 1.69-5.215 4.239-.199 2.551 1.815 4.79 4.498 4.998l30.507 2.373-.169 2.157-30.293-2.358c-2.683-.208-5.016 1.687-5.215 4.238-.199 2.552 1.815 4.79 4.495 4.998l30.292 2.356-.169 2.156-30.434-2.367c-2.683-.208-5.019 1.687-5.218 4.241-.199 2.549 1.815 4.787 4.498 4.998l30.437 2.368h.024l22.334 1.741a167.203 167.203 0 0 0 121.017-39.09l.088-.994v-56.315l.003.003Z" fill="#A0643C"/><path d="m135.429 146.586-10.077-1.331c-5.49-.726-10.527 3.133-11.25 8.619l-1.601 12.092 22.928-19.38Z" fill="#1E8F4E"/><path d="m250.447 196.147 4.061-16.658c1.311-5.375-1.99-10.794-7.368-12.105l-7.777-1.891-2.595 22.18 13.682 8.474h-.003Z" fill="#F5C100"/></svg>
